X: 636
T: The Morning of Life
C:O'Carolan
B:O'Neill's 636
Z: 1997 by John Chambers <jc@trillian.mit.edu>
N:"Moderage"
M:C
L:1/8
K:D
"p"D>E \
| F2 (G>F) E2 (F>E) | Dddd d2(c>d) | e2(f>e) (dcBA) | A2(B>A) A2D>E |
| (FA)(GF) (EG)(FD) | Dddd d2(c>d) | e2(f>e) (dcBA) | A2^G>G A2 ||
|| d>c \
| (cB)(BA) (AFED) | D2">"dd d2(cB | A2)(FE) (GFED) | (B,<D)(D>E) D2d>c |
| (cB)(BA) (AFED) | D2dd   Hd2(cB | A2)(FE) (GFED) | (B,<D)(D>E) HD2 |]


